UI/POI/SVG/monorail_solid_24px.svg

<svg width="24" height="24" viewBox="0 0 24 24" fill="none" xmlns="http://www.w3.org/2000/svg">
<path d="M21.0001 13.51L19.3201 3.67C19.2412 3.19858 18.9962 2.77098 18.6293 2.46463C18.2624 2.15829 17.798 1.99346 17.3201 2H6.66006C6.18214 1.99346 5.71768 2.15829 5.3508 2.46463C4.98392 2.77098 4.73888 3.19858 4.66006 3.67L3.00006 13.51C2.94133 13.8447 2.96887 14.1889 3.08006 14.51L4.46006 18.67C4.60198 19.0699 4.8674 19.4143 5.21794 19.6533C5.56848 19.8924 5.98597 20.0138 6.41006 20H7.00006V18.17L10.0001 15H14.0001L17.0001 18.17V20H17.5601C17.984 20.0046 18.3984 19.8744 18.7435 19.6282C19.0886 19.3819 19.3465 19.0324 19.4801 18.63L20.8601 14.47C20.9848 14.1663 21.0329 13.8366 21.0001 13.51ZM8.00006 14H6.00006V12H8.00006V14ZM18.0001 14H16.0001V12H18.0001V14ZM6.00006 10L6.85006 4.8C6.89681 4.57073 7.02248 4.36511 7.2052 4.21893C7.38792 4.07276 7.61611 3.99529 7.85006 4H16.2701C16.504 3.99529 16.7322 4.07276 16.9149 4.21893C17.0976 4.36511 17.2233 4.57073 17.2701 4.8L18.0001 10H6.00006ZM15.0001 19V22H9.00006V19L11.0001 17H13.0001L15.0001 19Z" fill="#0F1621"/>
</svg>

<svg xmlns="http://www.w3.org/2000/svg" width="24" height="24" viewBox="0 0 24 24"><rect width="24" height="24" style="fill:none"/><path d="M21,13.51,19.32,3.67a2,2,0,0,0-2-1.67H6.66a2,2,0,0,0-2,1.67L3,13.51a2,2,0,0,0,.08,1l1.38,4.16A2,2,0,0,0,6.41,20H7V18.17L10,15h4l3,3.17V20h.56a2,2,0,0,0,1.92-1.37l1.38-4.16A2,2,0,0,0,21,13.51ZM8,14H6V12H8ZM18,14H16V12h2ZM6,10l.85-5.2a1,1,0,0,1,1-.8h8.42a1,1,0,0,1,1,.8L18,10Zm9,9v3H9V19l2-2h2Z"/></svg>
